svgs/sharp-solid/escalator.svg

<svg xmlns="http://www.w3.org/2000/svg" viewBox="0 0 640 512"><!--! Font Awesome Pro 6.6.0 by @fontawesome - https://fontawesome.com License - https://fontawesome.com/license (Commercial License) Copyright 2024 Fonticons, Inc. --><path d="M208 48a48 48 0 1 1 96 0 48 48 0 1 1 -96 0zM424 160l24 0 96 0 64 0 0 128-64 0-72 0L234.1 496.2 216 512l-24 0-96 0-64 0 0-128 64 0 72 0L405.9 175.8 424 160zM320 128l0 80.4-128 112L192 128l128 0z"/></svg>

<svg xmlns="http://www.w3.org/2000/svg" viewBox="0 0 640 512"><!--! Font Awesome Pro 6.4.0 by @fontawesome - https://fontawesome.com License - https://fontawesome.com/license (Commercial License) Copyright 2023 Fonticons, Inc. --><path d="M208 48a48 48 0 1 1 96 0 48 48 0 1 1 -96 0zM424 160h24 96 64V288H544 472L234.1 496.2 216 512H192 96 32V384H96h72L405.9 175.8 424 160zM320 128v80.4l-128 112V128H320z"/></svg>
